packages/tokens/icons/bell/size16Px.svg

<svg viewBox="0 0 16 16" fill="none" xmlns="http://www.w3.org/2000/svg" width="1em" height="1em"><path d="M13.5 11.4607C13.4963 12.0338 13.0273 12.5 12.4528 12.5H3.54719C2.97268 12.5 2.50369 12.0338 2.50002 11.4607C2.49779 11.1119 2.66776 10.8044 2.93171 10.6168C2.99964 10.5686 3.07118 10.5307 3.17503 10.4757C3.18304 10.4715 3.19124 10.4671 3.19965 10.4627C3.30482 10.4069 3.45119 10.3286 3.58581 10.2155C3.90247 9.94921 4.06805 9.56935 4.06507 9.01009C4.055 7.11955 4.41616 5.74023 5.07095 4.84501C5.70642 3.97619 6.66494 3.5 8.02602 3.5C9.38634 3.5 10.3301 3.97543 10.9526 4.84161C11.5957 5.73649 11.945 7.11642 11.9349 9.01009C11.932 9.56935 12.0975 9.94921 12.4142 10.2155C12.5488 10.3286 12.6952 10.4069 12.8003 10.4627C12.8088 10.4671 12.817 10.4715 12.825 10.4757C12.9288 10.5307 13.0004 10.5686 13.0683 10.6168C13.3322 10.8044 13.5022 11.1119 13.5 11.4607Z" stroke="currentColor"/><path d="M9.55798 14C9.16205 14.3086 8.61032 14.5 8.00006 14.5C7.3898 14.5 6.83807 14.3086 6.44214 14" stroke="currentColor" stroke-linecap="round" stroke-linejoin="round"/><path d="M8.86157 2C8.82645 1.93115 8.78286 1.86733 8.73219 1.80992C8.56445 1.61987 8.31903 1.5 8.04561 1.5C7.77219 1.5 7.52677 1.61987 7.35903 1.80992C7.30878 1.86685 7.26524 1.93132 7.23016 2" stroke="currentColor" stroke-linecap="round" stroke-linejoin="round"/></svg>

<svg xmlns="http://www.w3.org/2000/svg" fill="none" viewBox="0 0 16 16" width="1em" height="1em"><path stroke="currentColor" d="M13.5 11.46a1.049 1.049 0 0 1-1.047 1.04H3.547A1.049 1.049 0 0 1 2.5 11.46a1.023 1.023 0 0 1 .432-.843c.068-.048.14-.086.243-.141l.025-.013c.105-.056.251-.134.386-.247.316-.267.482-.647.48-1.206-.011-1.89.35-3.27 1.005-4.165C5.706 3.976 6.665 3.5 8.026 3.5c1.36 0 2.304.475 2.927 1.342.643.894.992 2.274.982 4.168-.003.56.162.94.48 1.206.134.113.28.19.385.247l.025.013c.104.055.175.093.243.14.264.188.434.496.432.845Z"/><path stroke="currentColor" stroke-linecap="round" stroke-linejoin="round" d="M9.558 14c-.396.309-.948.5-1.558.5-.61 0-1.162-.191-1.558-.5m2.42-12A.917.917 0 0 0 7.23 2"/></svg>
